flaticon/constructions/spray-gun.svg

<svg xmlns="http://www.w3.org/2000/svg" width="32" height="32" viewBox="0 0 24 24">
    <path d="M 19.195312 16.402344 L 13.9375 16.402344 C 13.828125 15.992188 13.578125 15.625 13.199219 15.363281 C 12.726562 15.050781 12.0625 14.96875 11.511719 15.152344 L 10.917969 13.289062 L 11.679688 13.085938 C 11.761719 13.042969 11.878906 12.964844 11.921875 12.882812 C 11.960938 12.765625 12 12.683594 11.960938 12.5625 L 9.082031 1.769531 C 8.761719 0.488281 7.441406 -0.269531 6.164062 0.0898438 C 5.5625 0.25 5.042969 0.648438 4.722656 1.207031 C 4.402344 1.769531 4.324219 2.410156 4.484375 3.046875 L 7.363281 13.84375 C 7.441406 14.003906 7.601562 14.125 7.761719 14.125 C 7.777344 14.125 7.789062 14.125 7.800781 14.125 L 8.597656 13.910156 L 9.160156 15.601562 C 9.148438 15.601562 9.132812 15.601562 9.121094 15.601562 L 8 15.601562 C 7.761719 15.601562 7.601562 15.761719 7.601562 16.003906 L 7.601562 22.761719 C 7.601562 23.480469 8.121094 24 8.800781 24 C 9.441406 24 10 23.480469 10.039062 22.878906 L 10.371094 18.800781 L 11.199219 18.800781 L 11.199219 20.800781 C 11.199219 21.042969 11.359375 21.199219 11.601562 21.199219 C 11.839844 21.199219 12 21.042969 12 20.800781 L 12 18.800781 L 12.121094 18.800781 C 13.054688 18.800781 13.828125 18.125 13.972656 17.203125 L 19.195312 17.203125 C 19.4375 17.203125 19.597656 17.042969 19.597656 16.804688 C 19.597656 16.5625 19.4375 16.402344 19.195312 16.402344 Z M 7.878906 12.492188 L 9 12.203125 C 9.199219 12.164062 9.320312 11.925781 9.28125 11.726562 C 9.242188 11.523438 9 11.40625 8.800781 11.445312 L 7.675781 11.734375 L 7.460938 10.929688 L 8.203125 10.726562 C 8.402344 10.683594 8.519531 10.445312 8.480469 10.246094 C 8.441406 10.046875 8.203125 9.925781 8 9.964844 L 7.257812 10.171875 L 5.28125 2.808594 C 5.164062 2.410156 5.203125 1.96875 5.441406 1.609375 C 5.640625 1.25 6.003906 0.96875 6.402344 0.847656 C 6.523438 0.808594 6.683594 0.808594 6.800781 0.808594 C 7.523438 0.808594 8.160156 1.289062 8.363281 2.007812 L 11.160156 12.40625 L 9.652344 12.816406 L 8.761719 13.042969 C 8.742188 13.054688 8.722656 13.0625 8.703125 13.074219 L 8.082031 13.246094 Z M 9.441406 13.722656 L 10.242188 13.523438 L 10.828125 15.371094 C 10.566406 15.441406 10.300781 15.496094 10.03125 15.535156 Z M 9.242188 22.800781 C 9.199219 23.039062 9.042969 23.199219 8.800781 23.199219 C 8.5625 23.199219 8.402344 23 8.402344 22.761719 L 8.402344 18.800781 L 9.5625 18.800781 Z M 12.121094 18.003906 L 8.402344 18.003906 L 8.402344 16.402344 L 9.121094 16.402344 C 9.667969 16.402344 10.226562 16.339844 10.765625 16.21875 C 10.972656 16.175781 11.171875 16.128906 11.359375 16.082031 C 11.425781 16.0625 11.46875 16.039062 11.503906 16.003906 C 11.578125 15.976562 11.648438 15.953125 11.71875 15.921875 C 12.078125 15.804688 12.441406 15.84375 12.71875 16.042969 C 13.039062 16.242188 13.199219 16.5625 13.199219 16.921875 C 13.199219 17.523438 12.71875 18.003906 12.121094 18.003906 Z M 12.121094 18.003906"/>
</svg>

<svg xmlns="http://www.w3.org/2000/svg" width="32" height="32" viewBox="0 0 24 24">
    <path d="M19.195 16.402h-5.258c-.109-.41-.359-.777-.738-1.039-.472-.312-1.136-.394-1.687-.21l-.594-1.864.762-.203c.082-.043.199-.121.242-.203.039-.117.078-.2.039-.32L9.082 1.77A2.346 2.346 0 0 0 6.164.09a2.367 2.367 0 0 0-1.441 1.117 2.452 2.452 0 0 0-.239 1.84l2.88 10.797c.077.16.238.281.398.281H7.8l.797-.215.562 1.692H8c-.238 0-.398.16-.398.402v6.758c0 .718.52 1.238 1.199 1.238.64 0 1.199-.52 1.238-1.121l.332-4.078h.828v2c0 .242.16.398.403.398.238 0 .398-.156.398-.398v-2h.121a1.87 1.87 0 0 0 1.852-1.598h5.222c.242 0 .403-.16.403-.398 0-.242-.16-.403-.403-.403zM7.88 12.492L9 12.203c.2-.039.32-.277.281-.476-.039-.204-.281-.32-.48-.282l-1.125.29-.215-.805.742-.203c.2-.043.317-.282.277-.48-.039-.2-.277-.321-.48-.282l-.742.207L5.28 2.809a1.432 1.432 0 0 1 .16-1.2c.2-.359.563-.64.961-.761.121-.04.282-.04.399-.04.722 0 1.36.481 1.562 1.2l2.797 10.398-1.508.41-.89.227c-.02.012-.04.02-.059.031l-.621.172zm1.562 1.23l.801-.199.586 1.848c-.262.07-.527.125-.797.164zm-.199 9.079c-.043.238-.199.398-.441.398-.239 0-.399-.199-.399-.437V18.8h1.16zm2.88-4.797h-3.72v-1.602h.72c.546 0 1.105-.062 1.644-.183.207-.043.406-.09.593-.137a.317.317 0 0 0 .145-.078c.074-.027.144-.05.215-.082.36-.117.722-.078 1 .121.32.2.48.52.48.879 0 .601-.48 1.082-1.078 1.082zm0 0"/>
</svg>
